X: 33
M:6/8
L:1/8
K:G
gfe dcB|A/2B/2AG FED|EFG ABc|BGF E2:|
|:B|eBe g<be|dAd f<af|eBe g<be|f<af g<be|
f<af gfe|d{ed}cd AFD|EFG ABc|BGF E2:||

